X:1
T:J. S. Bach
T:BWV 988
T:Goldberg Variations: Variation XXIII
%%score { ( 1 3 ) | ( 2 4 ) }
L:1/8
M:3/4
K:G
V:1 treble nm="Harp"
V:3 treble 
V:2 treble 
V:4 treble 
V:1
 z G b/a/g/f/ e/d/^c/B/ | A/G/F a/g/f/e/ d/^c/B/A/ | G/F/E g/f/e/d/ ^c/B/A/G/ | %3
 F/E/D z/ z E/4F/4 G/4A/4B/4^c/4d- | dB,/C/ D/E/F/G/ A/B/c/d/ | eC/D/ E/F/G/A/ B/c/d/e/ | %6
 fD/E/ F/G/A/B/ c/d/e/f/ | g z/ z f/4e/4d/4c/4B/4A/4 G/ z/ z | %8
 z/ b/b/ z/ z/4 g/4f/4e/4d/ z/4 z/ c/4B/4A/4G/ z/ | %9
 z/ a/a/ z/ z/4 d/4^c/4B/4A/ z/4 z/ G/4F/4E/4D/ z/ | %10
 z/ g/g/ z/ z/4 c/4B/4A/4G/ z/4 z/ A/4G/4F/4E/ z/ | %11
 z/ g/g/ z/ z/4 F/4E/4D/4^C/ z/4 z/ D/4C/4B,/4A,/ z/ | z/ A/a/g/ f/e/d/c/ B/A/G/F/ | %13
 B/G/F/E/ D/C/B,/A,/ G,/B,/E/D/ | ^C/B,/A,/B,/ C/D/E/F/ G/A/B/^c/ | d/^c/4B/4A/4G/4F/4E/4 D z z2 | %16
 z G b/a/g/f/ e/d/^c/B/ | A/G/F a/g/f/e/ d/^c/B/A/ | G/F/E g/f/e/d/ ^c/B/A/G/ | %19
 F/E/D z/ z E/4F/4 G/4A/4B/4^c/4d- | dB,/C/ D/E/F/G/ A/B/c/d/ | eC/D/ E/F/G/A/ B/c/d/e/ | %22
 fD/E/ F/G/A/B/ c/d/e/f/ | g z/ z f/4e/4d/4c/4B/4A/4 G/ z/ z | %24
 z/ b/b/ z/ z/4 g/4f/4e/4d/ z/4 z/ c/4B/4A/4G/ z/ | %25
 z/ a/a/ z/ z/4 d/4^c/4B/4A/ z/4 z/ G/4F/4E/4D/ z/ | %26
 z/ g/g/ z/ z/4 c/4B/4A/4G/ z/4 z/ A/4G/4F/4E/ z/ | %27
 z/ g/g/ z/ z/4 F/4E/4D/4^C/ z/4 z/ D/4C/4B,/4A,/ z/ | z/ A/a/g/ f/e/d/c/ B/A/G/F/ | %29
 B/G/F/E/ D/C/B,/A,/ G,/B,/E/D/ | ^C/B,/A,/B,/ C/D/E/F/ G/A/B/^c/ | d/^c/4B/4A/4G/4F/4E/4 D z z2 | %32
 a/4g/4a/ z/ g/{g} f z/ e/{e} d z/ c/ | B/4A/4B/ z/ A/{A} G z/ F/{F} E z/ D/ | %34
 C/4B,/4C/ z/[K:bass] B,/{B,} A, z/ G,/{G,} F, z/ E,/ | %35
{E,} ^D, z/ F,/ A, z/ C/ B,/4A,/4B,/ z/ A,/ | G, z[K:treble] z/ ^d/e/f/ g/^g/a/b/ | %37
 c'/a/g/=f/ e/d/c/B/ A/G/F/E/ | ^D/c/B z/4 B/4^c/4^d/4e/4f/4g/- g/f/f/4e/4d/ | %39
 e/4c/4B/4A/4B/4 z F/4E/4^D/4E/4 z/4 z/ z/4[K:bass] A,/4G,/4F,/4G,/4 z/4 z/ | %40
[K:treble] z/ E/=F/G/ A/B/c/d/ e z | z/ d/c/B/ A/G/F/E/ D z | %42
[K:bass] z/ D/ z/ B,/ z/ D/ z/ B,/ z/ B,/ z/ G,/ | z/ G,/ z/ E,/ z/ G,/ z/ E,/ z/ E,/ z/ C,/ | %44
 z/ C,/ z/ A,,/ z/ C,/ z/ E,/ z/ G,/ z/ B,/ | z/ D/ z/ B,/ z/ D/ z/ F/ z/[K:treble] A/ z/ c/ | %46
 z/ ^c/d/e/ f/g/a/b/ c' z | z/ b/a/g/ f/e/d/c/ B z | a/4g/4a/ z/ g/{g} f z/ e/{e} d z/ c/ | %49
 B/4A/4B/ z/ A/{A} G z/ F/{F} E z/ D/ | C/4B,/4C/ z/ B,/{B,} A, z/ G,/{G,} F, z/ E,/ | %51
{E,} ^D, z/ F,/ A, z/ C/ B,/4A,/4B,/ z/ A,/ | G, z z/ ^d/e/f/ g/^g/a/b/ | %53
 c'/a/g/=f/ e/d/c/B/ A/G/F/E/ | ^D/c/B z/4 B/4^c/4^d/4e/4f/4g/- g/f/f/4e/4d/ | %55
 e/4c/4B/4A/4B/4 z F/4E/4^D/4E/4 z/4 z/ z/4 A,/4G,/4F,/4G,/4 z/4 z/ | z/ E/=F/G/ A/B/c/d/ e z | %57
 z/ d/c/B/ A/G/F/E/ D z | z/ D/ z/ B,/ z/ D/ z/ B,/ z/ B,/ z/ G,/ | %59
 z/ G,/ z/ E,/ z/ G,/ z/ E,/ z/ E,/ z/ C,/ | z/ C,/ z/ A,,/ z/ C,/ z/ E,/ z/ G,/ z/ B,/ | %61
 z/ D/ z/ B,/ z/ D/ z/ F/ z/ A/ z/ c/ | z/ ^c/d/e/ f/g/a/b/ c' z | z/ b/a/g/ f/e/d/c/ B z |] %64
V:2
 Gb/a/ g/f/e/d/ ^c/B/A/G/ | Fa/g/ f/e/d/^c/ B/A/G/F/ | Eg/f/ e/d/^c/B/ A/G/F/E/ | %3
 D z/[K:bass] C/4B,/4 A,/4G,/4F,/4E,/4D, z/ z C,/ | B,, z[K:treble] B,/C/D/E/ F/G/A/B/ | %5
 c/d/e C/D/E/F/ G/A/B/c/ | d/e/f D/E/F/G/ A/B/c/A/ | %7
 B/4G/4A/4B/4c/4d/4e/4f/4 g/ z2 F/4E/4D/4C/4B,/4A,/4 | G, z/ A,/ B,/4A,/4B,/ z/ C/ D/4C/4D/ z/ E/ | %9
 F/4E/4F/ z/ G/ A/4G/4A/ z/ B/ ^c/4B/4c/ z/ d/ | e/4d/4e/ z/ f/ g/4f/4g/ z/ a/ b/4a/4b/ z/ d/ | %11
 ^c z/ e/ G z/ B/ A/4G/4A/ z/ G/ | F z/ A,/ A/G/F/E/ D/C/B,/A,/ | %13
[K:bass] G,/B,/D/C/ B,/A,/G,/F,/ E,/D,/^C,/B,,/ | A,,/E,/G,/F,/ E,/D,/^C,/B,,/ A,,/G,,/F,,/E,,/ | %15
 D,,2- D,,/E,,/4F,,/4G,,/4A,,/4B,,/4^C,/4 D, z |[K:treble] Gb/a/ g/f/e/d/ ^c/B/A/G/ | %17
 Fa/g/ f/e/d/^c/ B/A/G/F/ | Eg/f/ e/d/^c/B/ A/G/F/E/ | %19
 D z/[K:bass] C/4B,/4 A,/4G,/4F,/4E,/4D, z/ z C,/ | B,, z[K:treble] B,/C/D/E/ F/G/A/B/ | %21
 c/d/e C/D/E/F/ G/A/B/c/ | d/e/f D/E/F/G/ A/B/c/A/ | %23
 B/4G/4A/4B/4c/4d/4e/4f/4 g/ z2 F/4E/4D/4C/4B,/4A,/4 | G, z/ A,/ B,/4A,/4B,/ z/ C/ D/4C/4D/ z/ E/ | %25
 F/4E/4F/ z/ G/ A/4G/4A/ z/ B/ ^c/4B/4c/ z/ d/ | e/4d/4e/ z/ f/ g/4f/4g/ z/ a/ b/4a/4b/ z/ d/ | %27
 ^c z/ e/ G z/ B/ A/4G/4A/ z/ G/ | F z/ A,/ A/G/F/E/ D/C/B,/A,/ | %29
[K:bass] G,/B,/D/C/ B,/A,/G,/F,/ E,/D,/^C,/B,,/ | A,,/E,/G,/F,/ E,/D,/^C,/B,,/ A,,/G,,/F,,/E,,/ | %31
 D,,2- D,,/E,,/4F,,/4G,,/4A,,/4B,,/4^C,/4 D, z | %32
 z/ D,/D,/ z/ z/4 E,/4F,/4G,/4A,/ z/4 z/ A,/4B,/4C/4D/ z/ | %33
 z/ G,/G,/ z/ z/4[K:treble] D/4E/4F/4G/ z/4 z/ F/4G/4A/4B/ z/ | %34
 z/ A/A/ z/ z/4 B/4c/4d/4e/ z/4 z/ e/4f/4g/4a/ z/ | %35
 z/ c'/c'/ z/ z/4 b/4a/4g/4f/ z/4 z/ g/4f/4e/4^d/ z/ | z/ e/d/c/ B/A/G/F/ E/D/C/B,/ | %37
 A, z/ z ^G,/A,/B,/ C/^C/^D/E/ | F[K:bass] z/ A,/ G,C A,B, | %39
 E,[K:treble] z/4 A/4G/4F/4 G/4 z/4 z/[K:bass] z/4 C/4B,/4A,/4 B,/4 z =F,/4E,/4D,/4 | %40
 C, z z/ D/C/B,/ A,/G,/F,/E,/ | D, z z/ C,/D,/E,/ F,/G,/A,/B,/ | CC CC A,A, | F,F, F,F, D,D, | %44
 B,,B,, B,,D, =F,A, | CC C[K:treble]E GB | d/ z/ z[K:bass] z/ E/D/C/ B,/A,/G,/F,/ | %47
 G,/B,,/C,/D,/ E,/F,/G,/A,/ B, z | z/ D,/D,/ z/ z/4 E,/4F,/4G,/4A,/ z/4 z/ A,/4B,/4C/4D/ z/ | %49
 z/ G,/G,/ z/ z/4 D/4E/4F/4G/ z/4 z/ F/4G/4A/4B/ z/ | %50
 z/ A/A/ z/ z/4 B/4c/4d/4e/ z/4 z/ e/4f/4g/4a/ z/ | %51
 z/ c'/c'/ z/ z/4 b/4a/4g/4f/ z/4 z/ g/4f/4e/4^d/ z/ | z/ e/d/c/ B/A/G/F/ E/D/C/B,/ | %53
 A, z/ z ^G,/A,/B,/ C/^C/^D/E/ | F z/ A,/ G,C A,B, | %55
 E, z/4 A/4G/4F/4 G/4 z/4 z/ z/4 C/4B,/4A,/4 B,/4 z =F,/4E,/4D,/4 | C, z z/ D/C/B,/ A,/G,/F,/E,/ | %57
 D, z z/ C,/D,/E,/ F,/G,/A,/B,/ | CC CC A,A, | F,F, F,F, D,D, | B,,B,, B,,D, =F,A, | CC CE GB | %62
 d/ z/ z z/ E/D/C/ B,/A,/G,/F,/ | G,/B,,/C,/D,/ E,/F,/G,/A,/ B, z |] %64
V:3
 x6 | x6 | x6 | x6 | x6 | x6 | x6 | x6 | z/ d/d/ z/ z4 | z/ d/d/ z/ z4 | z/ B/B/ z/ z4 | %11
 z/ A/A/ z/ z4 | x6 | x6 | x6 | x6 | x6 | x6 | x6 | x6 | x6 | x6 | x6 | x6 | z/ d/d/ z/ z4 | %25
 z/ d/d/ z/ z4 | z/ B/B/ z/ z4 | z/ A/A/ z/ z4 | x6 | x6 | x6 | x6 | x6 | x6 | x3/2[K:bass] x9/2 | %35
 x6 | x2[K:treble] x4 | x6 | x6 | x17/4[K:bass] x7/4 |[K:treble] z/ C/D/E/ =F/G/A/B/ z2 | %41
 z/ B/A/G/ F/E/D/C/ B, z |[K:bass] z/ B,/ z/ ^G,/ z/ B,/ z/ =G,/ z/ G,/ z/ E,/ | %43
 z/ E,/ z/ ^C,/ z/ E,/ z/ =C,/ z/ C,/ z/ A,,/ | z/ A,,/ z/ F,,/ z/ A,,/ z/ C,/ z/ E,/ z/ G,/ | %45
 z/ =F,/ z/ D,/ z/ F,/ z/ A,/ z/[K:treble] C/ z/ E/ | z/ A/B/^c/ d/e/f/g/ a/ z/ z | %47
 z/ d/c/B/ A/G/F/E/ D z | x6 | x6 | x6 | x6 | x6 | x6 | x6 | x6 | z/ C/D/E/ =F/G/A/B/ z2 | %57
 z/ B/A/G/ F/E/D/C/ B, z | z/ B,/ z/ ^G,/ z/ B,/ z/ =G,/ z/ G,/ z/ E,/ | %59
 z/ E,/ z/ ^C,/ z/ E,/ z/ =C,/ z/ C,/ z/ A,,/ | z/ A,,/ z/ F,,/ z/ A,,/ z/ C,/ z/ E,/ z/ G,/ | %61
 z/ =F,/ z/ D,/ z/ F,/ z/ A,/ z/ C/ z/ E/ | z/ A/B/^c/ d/e/f/g/ a/ z/ z | z/ d/c/B/ A/G/F/E/ D z |] %64
V:4
 x6 | x6 | x6 | x3/2[K:bass] x9/2 | x2[K:treble] x4 | x6 | x6 | x6 | x6 | x6 | x6 | x6 | x6 | %13
[K:bass] x6 | x6 | x6 |[K:treble] x6 | x6 | x6 | x3/2[K:bass] x9/2 | x2[K:treble] x4 | x6 | x6 | %23
 x6 | x6 | x6 | x6 | x6 | x6 |[K:bass] x6 | x6 | x6 | z/ D,,/D,,/ z/ z4 | %33
 z/ G,,/G,,/ z/ z4[K:treble] | z/ E/E/ z/ z4 | z/ a/a/ z/ z4 | x6 | x6 | x[K:bass] x5 | %39
 x[K:treble] x2[K:bass] x3 | z2 z/ B,/A,/G,/ F,/E,/D,/C,/ | B,, z z/ A,,/B,,/C,/ D,/E,/F,/G,/ | %42
 A,A, A,A, F,F, | D,D, D,D, B,,B,, | G,,G,, G,,B,, D,=F, | E,E, E,[K:treble]G, B,D | %46
 F/ z/ z[K:bass] z/ G,/F,/E,/ D,/C,/B,,/A,,/ | G,,A,,/B,,/ C,/D,/E,/F,/ G, z | z/ D,,/D,,/ z/ z4 | %49
 z/ G,,/G,,/ z/ z4 | z/ E/E/ z/ z4 | z/ a/a/ z/ z4 | x6 | x6 | x6 | x6 | %56
 z2 z/ B,/A,/G,/ F,/E,/D,/C,/ | B,, z z/ A,,/B,,/C,/ D,/E,/F,/G,/ | A,A, A,A, F,F, | %59
 D,D, D,D, B,,B,, | G,,G,, G,,B,, D,=F, | E,E, E,G, B,D | F/ z/ z z/ G,/F,/E,/ D,/C,/B,,/A,,/ | %63
 G,,A,,/B,,/ C,/D,/E,/F,/ G, z |] %64

